src/assets/icons/weeks,fancy,49.svg

<svg width="48" height="48" viewBox="0 0 48 48" fill="none" xmlns="http://www.w3.org/2000/svg">
<g clip-path="url(#clip0_121:843)">
<rect opacity="0.2" x="4" y="6" width="40" height="40" rx="4" fill="black"/>
<path d="M6.61186 37.4205H16.386V41H20.5025V37.4205H23.0281V33.9702H20.5025V20.6364H15.1133L6.61186 34.0298V37.4205ZM16.4656 33.9702H10.9471V33.8111L16.3065 25.3295H16.4656V33.9702ZM33.2646 20.358C28.7106 20.3381 25.6381 23.321 25.658 27.4176C25.668 31.2159 28.3029 33.9702 31.9123 33.9702C34.1495 33.9702 36.1381 32.8864 37.043 31.0966H37.1822C37.1722 35.1335 35.7702 37.5895 33.1154 37.5895C31.5543 37.5895 30.4308 36.7344 30.1026 35.2528H25.8569C26.2546 38.6832 29.0387 41.2784 33.1154 41.2784C38.1566 41.2784 41.408 37.2017 41.3981 30.2912C41.3881 22.9134 37.4506 20.3778 33.2646 20.358ZM33.2944 23.7386C35.2731 23.7386 36.7347 25.3494 36.7546 27.2884C36.7646 29.2372 35.2234 30.848 33.2546 30.848C31.266 30.848 29.8441 29.2969 29.8342 27.2983C29.8143 25.3097 31.2958 23.7386 33.2944 23.7386ZM23.9963 75.4474C29.117 75.4474 32.2093 71.5497 32.2193 64.8381C32.2292 58.1761 29.0971 54.358 23.9963 54.358C18.8855 54.358 15.7832 58.1662 15.7733 64.8381C15.7534 71.5298 18.8656 75.4375 23.9963 75.4474ZM23.9963 71.8778C21.6596 71.8778 20.1483 69.5312 20.1582 64.8381C20.1681 60.2145 21.6696 57.8878 23.9963 57.8878C26.313 57.8878 27.8244 60.2145 27.8244 64.8381C27.8343 69.5312 26.323 71.8778 23.9963 71.8778Z" fill="black"/>
<g opacity="0.4">
<path d="M10 4C10 2.89543 10.8954 2 12 2C13.1046 2 14 2.89543 14 4V8C14 9.10457 13.1046 10 12 10C10.8954 10 10 9.10457 10 8V4Z" fill="black"/>
<path d="M34 4C34 2.89543 34.8954 2 36 2C37.1046 2 38 2.89543 38 4V8C38 9.10457 37.1046 10 36 10C34.8954 10 34 9.10457 34 8V4Z" fill="black"/>
</g>
<path fill-rule="evenodd" clip-rule="evenodd" d="M10 6.00869C7.52043 6.04456 6.11466 6.22849 5.17157 7.17157C4 8.34315 4 10.2288 4 14V16H44V14C44 10.2288 44 8.34315 42.8284 7.17157C41.8853 6.22849 40.4796 6.04456 38 6.00869V8C38 9.10457 37.1046 10 36 10C34.8954 10 34 9.10457 34 8V6H14V8C14 9.10457 13.1046 10 12 10C10.8954 10 10 9.10457 10 8V6.00869Z" fill="black"/>
</g>
<defs>
<clipPath id="clip0_121:843">
<rect width="48" height="48" fill="white"/>
</clipPath>
</defs>
</svg>

<svg xmlns="http://www.w3.org/2000/svg" width="48" height="48" fill="none" viewBox="0 0 48 48">
  <g clip-path="url(#clip0_121:843)">
    <rect width="40" height="40" x="4" y="6" fill="#000" opacity=".2" rx="4"/>
    <path fill="#000" d="M6.612 37.42h9.774V41h4.117v-3.58h2.525v-3.45h-2.525V20.636h-5.39L6.612 34.03v3.39zm9.854-3.45h-5.519v-.159l5.36-8.482h.159v8.641zm16.799-13.612c-4.554-.02-7.627 2.963-7.607 7.06.01 3.798 2.645 6.552 6.254 6.552 2.238 0 4.226-1.084 5.131-2.873h.14c-.01 4.036-1.413 6.492-4.068 6.492-1.56 0-2.684-.855-3.012-2.336h-4.246c.398 3.43 3.182 6.025 7.258 6.025 5.042 0 8.293-4.076 8.283-10.987-.01-7.378-3.947-9.913-8.133-9.933zm.03 3.38c1.978 0 3.44 1.611 3.46 3.55.01 1.95-1.532 3.56-3.5 3.56-1.989 0-3.41-1.551-3.42-3.55-.02-1.988 1.46-3.56 3.46-3.56zm-9.299 51.71c5.121 0 8.213-3.898 8.223-10.61.01-6.662-3.122-10.48-8.223-10.48-5.11 0-8.213 3.808-8.223 10.48-.02 6.692 3.093 10.6 8.223 10.61zm0-3.57c-2.336 0-3.848-2.347-3.838-7.04.01-4.623 1.512-6.95 3.838-6.95 2.317 0 3.828 2.327 3.828 6.95.01 4.693-1.501 7.04-3.828 7.04z"/>
    <g opacity=".4">
      <path fill="#000" d="M10 4a2 2 0 114 0v4a2 2 0 11-4 0V4zM34 4a2 2 0 114 0v4a2 2 0 11-4 0V4z"/>
    </g>
    <path fill="#000" fill-rule="evenodd" d="M10 6.009c-2.48.036-3.885.22-4.828 1.163C4 8.343 4 10.229 4 14v2h40v-2c0-3.771 0-5.657-1.172-6.828-.943-.944-2.348-1.127-4.828-1.163V8a2 2 0 11-4 0V6H14v2a2 2 0 11-4 0V6.009z" clip-rule="evenodd"/>
  </g>
  <defs>
    <clipPath id="clip0_121:843">
      <path fill="#fff" d="M0 0h48v48H0z"/>
    </clipPath>
  </defs>
</svg>
